!!!COM: Palestrina, Giovanni Perluigi da
!!!OPR: Missa Iste confessor
!!!OTL: Sanctus
**kern	**kern	**kern	**kern
*Ibass	*Itenor	*Icalto	*Icant
!Bassus	!Tenor	!Altus	!Cantus
*clefF4	*clefGv2	*clefG2	*clefG2
*k[]	*k[]	*k[]	*k[]
*G:mix	*G:mix	*G:mix	*G:mix
*M4/2	*M4/2	*M4/2	*M4/2
=1	=1	=1	=1
1G	0r	0r	0r
1A	.	.	.
=2	=2	=2	=2
1.G	0r	1d	1r
.	.	1e	1g
2E	.	.	.
=3	=3	=3	=3
1F#	0r	1.d	1a
2.G	.	.	[1g
.	.	2B	.
4F	.	.	.
=4	=4	=4	=4
4E	1G	1c#	2g]
4D	.	.	.
2E	.	.	2e
1D	1A	2.d	1f#
.	.	4c	.
=5	=5	=5	=5
1GG	1.G	4B	2.g
.	.	4A	.
.	.	2B	.
.	.	.	4f
1C	.	2.c	4e
.	.	.	4d
.	2E	.	2e
.	.	4B	.
=6	=6	=6	=6
1D	1F#	4A	2.d
.	.	4G	.
.	.	2A	.
.	.	.	8c
.	.	.	8d
1GG	2.G	1B	4e
.	.	.	4d
.	.	.	[2d
.	4F	.	.
=7	=7	=7	=7
2r	4E	1G	2d]
.	4D	.	.
2.G	2E	.	2c#
.	1D	2A	1d
4G	.	.	.
2F#	.	[2d	.
=8	=8	=8	=8
2G	0r	4d]	2r
.	.	4d	.
2A	.	2c	2.a
2F	.	2d	.
.	.	.	4a
2E	.	2e	2g
=9	=9	=9	=9
1D	0r	2f	2.a
.	.	2f	.
.	.	.	4b
2.AA	.	2c	2cc
.	.	2f	2cc
4BB	.	.	.
=10	=10	=10	=10
2C	2r	2e	2g
2AA	2.A	2e	2.cc
1E	.	[1e	.
.	4A	.	4cc
.	2G	.	2b
=11	=11	=11	=11
0r	2A	2e]	2cc
.	2B	2d	1dd
.	2c	2e	.
.	2c	2e	[2cc
=12	=12	=12	=12
1r	1G	2d	2cc]
.	.	1g	2b
2r	1d	.	1a
[2D	.	4f	.
.	.	4e	.
=13	=13	=13	=13
4D]	2A	2f	2r
4D	.	.	.
2C	2c	2e	2.a
2D	1B	2f	.
.	.	.	4a
2E	.	2e	2g
=14	=14	=14	=14
2F#	2A	1d	2a
2G	2.G	.	2b
1C	.	1e	4cc
.	8A	.	4b
.	8B	.	.
.	2c	.	4a
.	.	.	4g
=15	=15	=15	=15
1D	2A	1d	2f#
.	2B	.	1g
1D	1A	1d	.
.	.	.	2f#
=16	=16	=16	=16
0GG	0G	2r	1g
.	.	2d	.
.	.	2B	2r
.	.	2d	2g
=17	=17	=17	=17
0r	0r	2c	2e
.	.	2B	2g
.	.	4A	2f
.	.	4B	.
.	.	4c	2e
.	.	4d	.
=18	=18	=18	=18
0r	1r	4e	4c
.	.	4f	4d
.	.	2g	4e
.	.	.	4f
.	1c	2.e	2g
.	.	.	[2cc
.	.	8d	.
.	.	8e	.
=19	=19	=19	=19
0r	2A	2f	4cc]
.	.	.	4b
.	2c	2e	1a
.	1B	1d	.
.	.	.	2g#
=20	=20	=20	=20
1F	2A	2c	0a
.	4D	2.f	.
.	4E	.	.
2D	4F	.	.
.	4G	4e	.
2F	4A	4c	.
.	4B	4d	.
=21	=21	=21	=21
1E	4c	4e	0r
.	4B	4f#	.
.	4B	1g	.
.	8A	.	.
.	8G	.	.
2D	1A	.	.
2D	.	2f#	.
=22	=22	=22	=22
1E	2G	1g	2r
.	2C	.	2.g
1C	2.c	2.e	.
.	.	.	4f
.	.	.	2e
.	4B	4d	.
=23	=23	=23	=23
1r	2A	2c	2f#
.	2B	2d	2.g
2r	2c	2e	.
.	.	.	4a
[2G	2d	4d	4b
.	.	4c	4cc
=24	=24	=24	=24
4G]	1G	2B	2dd
4F	.	.	.
2E	.	2e	1cc
2F#	2r	1d	.
2G	[2G	.	2b
=25	=25	=25	=25
2.C	4G]	1e	1.cc
.	4F	.	.
.	2E	.	.
4BB	.	.	.
2AA	2F#	1r	.
2BB	[2G	.	2b
=26	=26	=26	=26
2C	4G]	1r	1a
.	8F	.	.
.	8E	.	.
2D	2F#	.	.
2GG	4G	2.d	1b
.	4A	.	.
[2G	4B	.	.
.	4c	4c	.
=27	=27	=27	=27
4G]	2d	1B	2.g
4F	.	.	.
2E	2.e	.	.
.	.	.	4f
1A	.	1c	2e
.	4d	.	.
.	[2c	.	2f#
=28	=28	=28	=28
1G	2c]	1d	1g
.	2B	.	.
[1C	1c	2e	1r
.	.	2g	.
=29	=29	=29	=29
1C]	1r	2e	1g
.	.	2.g	.
1r	1c	.	2e
.	.	4f	.
.	.	4e	2g
.	.	4d	.
=30	=30	=30	=30
0r	2A	1c	2f
.	2c	.	2e
.	2B	2G	2d
.	2A	[2c	2c
=31	=31	=31	=31
2r	1G	2c]	1d
2G	.	2B	.
2E	1C	4e	[1c
.	.	4d	.
2G	.	4c	.
.	.	4B	.
=32	=32	=32	=32
1.F	2r	2.A	1c]
.	2c	.	.
.	.	4B	.
.	2A	1c	1r
2E	2c	.	.
=33	=33	=33	=33
0D	2B	2r	0r
.	2A	2f	.
.	2B	2d	.
.	[2A	2f	.
=34	=34	=34	=34
2C	4A]	2e	1r
.	4G	.	.
2BB	1G	2d	.
[1AA	.	[1c	1cc
.	4F#	.	.
.	4E	.	.
=35	=35	=35	=35
1AA]	1F#	2c]	2a
.	.	2A	2cc
1GG	2G	[1d	2.b
.	2d	.	.
.	.	.	4cc
=36	=36	=36	=36
1G	2B	1d]	2dd
.	2d	.	2.g
2E	2c	2e	.
.	.	.	4f
2G	2B	[2d	4d
.	.	.	4e
=37	=37	=37	=37
2F	2A	4d]	2f
.	.	4c#	.
2E	2G	2c#	1g
1D	1A	1d	.
.	.	.	2f#
=38	=38	=38	=38
0GG	0B	0d	0g
==	==	==	==
*-	*-	*-	*-
!!!CDT: 1525/^1526/-1594/2/2
!!!OCY: Italia
!!!AGN: Mass (Paraphrase)
!!!AST: renaissance, vocal
!!!ASW: Hymn
!!!PWK: Masses, Book 5
!!!RNB: Cadence finals: D
!!!YOR: Le Opere Complete, v. 15, p. 72
!!!YOO: Rome, Italy: Fratelli Scalera
!!!END: 1992//
!!!EED: John Miller
!!!YEC: Copyright 2000, John Miller
!!!YEN: United States of America
!!!YEM: Rights to all derivative electronic formats reserved.
!!!YEM: Refer to licensing agreement for further details.
!!!YEM: This file must be accompanied by the licensing agreement.
!!!YEM: A copy of the licensing agreement may be found at http://www.music-cog.ohio-state.edu/HumdrumDatabases/Palestrina/license.txt
!!!EMD: converted to Humdrum by Bret Aarden
